Mark/mark-white-border.svg

<svg width="1024" height="1024" fill="none" xmlns="http://www.w3.org/2000/svg"><g clip-path="url(#prefix__clip5_73)"><g mask="url(#prefix__mask5_78)" fill="#FFF" fill-rule="evenodd" clip-path="url(#prefix__clip5_76)"><path d="M738.77 172.59l81.06 61.09c5.13 3.87 6.16 11.17 2.29 16.32L629.23 505.96l-99.67-75.11 192.89-255.96c3.87-5.14 11.18-6.17 16.32-2.3zM629.23 505.96l-75.21 99.81-24.46-174.92 99.67 75.11zM560.34 648.94l75.21-99.82 24.46 174.92-99.67-75.1zM680.7 871.12l-14.74-104.21-99.79-75.21 18.59 131.47 77.81 58.64c8.11 6.12 19.56-.63 18.13-10.69zM176.82 491.41l323.37-44.84 49.91 350.48-378.57-285.27c-8.09-6.1-4.76-18.98 5.29-20.37z"/></g></g></svg>

<svg width="1024.000000" height="1024.000000" viewBox="0 0 1024 1024" fill="none" xmlns="http://www.w3.org/2000/svg" xmlns:xlink="http://www.w3.org/1999/xlink">
	<defs>
		<clipPath id="clip5_76">
			<rect id="mark" width="658.000000" height="714.641052" transform="translate(167.000000 170.000000)" fill="white" fill-opacity="0"/>
		</clipPath>
		<clipPath id="clip5_73">
			<rect id="mark-white-border" width="1024.000000" height="1024.000000" fill="white" fill-opacity="0"/>
		</clipPath>
	</defs>
	<g clip-path="url(#clip5_73)">
		<g clip-path="url(#clip5_76)">
			<mask id="mask5_78" mask-type="alpha" maskUnits="userSpaceOnUse" x="167.000000" y="170.000000" width="658.000000" height="714.641113">
				<rect id="rect" x="167.000000" y="170.000000" width="658.000000" height="714.641052" fill="#000000" fill-opacity="1.000000"/>
			</mask>
			<g mask="url(#mask5_78)">
				<path id="path" d="M738.77 172.59L819.83 233.68C824.96 237.55 825.99 244.85 822.12 250L629.23 505.96L529.56 430.85L722.45 174.89C726.32 169.75 733.63 168.72 738.77 172.59ZM629.23 505.96L554.02 605.77L529.56 430.85L629.23 505.96Z" fill="#FFFFFF" fill-opacity="1.000000" fill-rule="evenodd"/>
				<path id="path" d="M560.34 648.94L635.55 549.12L660.01 724.04L560.34 648.94Z" fill="#FFFFFF" fill-opacity="1.000000" fill-rule="evenodd"/>
				<path id="path" d="M680.7 871.12L665.96 766.91L566.17 691.7L584.76 823.17L662.57 881.81C670.68 887.93 682.13 881.18 680.7 871.12Z" fill="#FFFFFF" fill-opacity="1.000000" fill-rule="evenodd"/>
				<path id="path" d="M176.82 491.41L500.19 446.57L550.1 797.05L171.53 511.78C163.44 505.68 166.77 492.8 176.82 491.41Z" fill="#FFFFFF" fill-opacity="1.000000" fill-rule="evenodd"/>
			</g>
		</g>
	</g>
</svg>
